_includes/icons/ios-vegetarian-food.svg

<svg fill="#666" height="50" viewBox="0 0 50 50" width="50" xmlns="http://www.w3.org/2000/svg"><path d="m33 0c-1.09375 0-2 .90625-2 2v3c0 .945313.671875 1.769531 1.5625 1.96875-.535156.859375-1.054687 1.933594-1.5625 3.15625-1.113281 2.675781-2.136719 5.953125-2.65625 8.625-.105469.542969.253906 1.066406.796875 1.171875s1.066406-.253906 1.171875-.796875c.484375-2.492187 1.480469-5.71875 2.53125-8.25.527344-1.265625 1.058594-2.347656 1.53125-3.0625.234375-.359375.453125-.625.59375-.75.054688-.046875.050781-.058594.0625-.0625h7.8125c.027344.015625.109375.066406.21875.1875.21875.242188.503906.695313.8125 1.25.617188 1.109375 1.289063 2.667969 1.90625 4.375 1.234375 3.414063 2.21875 7.457031 2.21875 9v22.1875c0 1.667969-1.332031 3-3 3h-12c-.753906 0-1.441406-.265625-1.96875-.71875-.253906-.304687-.667969-.429687-1.046875-.316406-.382812.109375-.660156.4375-.710937.832031-.050782.394531.136718.78125.476562.984375.875.753906 2.007813 1.21875 3.25 1.21875h12c2.75 0 5-2.25 5-5v-22.1875c0-2.253906-1.058594-6.109375-2.34375-9.65625-.640625-1.773437-1.328125-3.453125-2.03125-4.71875-.09375-.167969-.1875-.3125-.28125-.46875.933594-.164062 1.65625-.992187 1.65625-1.96875v-3c0-1.09375-.90625-2-2-2zm0 2h12v3h-12zm-13.78125 12.96875c-.535156-.011719-1 .0625-1 .0625s-1.410156 2.296875-1.5625 4.96875c-2.554687-3.890625-5.769531-.535156-6.96875-3.625 0 4.929688 3.90625 4.003906 5.34375 4.625-4.386719 0-2.839844 3.773438-6.34375 3.875 3.117188 1.378906 5.910156 1.097656 7.96875-2.90625-.953125 2.785156-1.644531 5.035156 2.25 7.375 1.027344-1.835937.53125-5.171875-.5-7.84375 1.867188 3.089844 4.449219 5.210938 7.84375 3.0625-2.722656-.710937-1.503906-2.707031-6.3125-3.46875 3.089844.421875 5.199219.859375 6.0625-2.40625-2.488281.945313-3.480469-2.796875-7.5625 1.4375-.015625.007813.023438-2.679687 2.28125-4.6875-.34375-.335937-.964844-.457031-1.5-.46875zm-10.84375 5.59375c-.085937.019531-.171875.050781-.25.09375-5.8125 2.167969-8.125 7.449219-8.125 13.1875 0 8.523438 7.613281 16.15625 17 16.15625 4.136719 0 8.363281-1.402344 11.59375-4.34375s5.40625-7.433594 5.40625-13.40625c0-2.308594-.394531-4.648437-1.4375-6.65625-1.042969-2.007812-2.777344-3.675781-5.28125-4.53125-.527344-.179687-1.101562.097656-1.28125.625-.179687.527344.097656 1.101563.625 1.28125 2.035156.695313 3.3125 1.9375 4.15625 3.5625s1.21875 3.636719 1.21875 5.71875c0 5.496094-1.9375 9.371094-4.75 11.9375s-6.5625 3.8125-10.25 3.8125c-8.292969 0-15-6.835937-15-14.15625 0-5.234375 1.8125-9.480469 6.8125-11.34375.476563-.167969.753906-.667969.640625-1.164062-.109375-.492188-.574219-.824219-1.078125-.773438z"/></svg>

<svg xmlns="http://www.w3.org/2000/svg" viewBox="0 0 50 50" width="50" height="50" fill="#666"><path d="M 33 0 C 31.90625 0 31 0.90625 31 2 L 31 5 C 31 5.945313 31.671875 6.769531 32.5625 6.96875 C 32.027344 7.828125 31.507813 8.902344 31 10.125 C 29.886719 12.800781 28.863281 16.078125 28.34375 18.75 C 28.238281 19.292969 28.597656 19.816406 29.140625 19.921875 C 29.683594 20.027344 30.207031 19.667969 30.3125 19.125 C 30.796875 16.632813 31.792969 13.40625 32.84375 10.875 C 33.371094 9.609375 33.902344 8.527344 34.375 7.8125 C 34.609375 7.453125 34.828125 7.1875 34.96875 7.0625 C 35.023438 7.015625 35.019531 7.003906 35.03125 7 L 42.84375 7 C 42.871094 7.015625 42.953125 7.066406 43.0625 7.1875 C 43.28125 7.429688 43.566406 7.882813 43.875 8.4375 C 44.492188 9.546875 45.164063 11.105469 45.78125 12.8125 C 47.015625 16.226563 48 20.269531 48 21.8125 L 48 44 C 48 45.667969 46.667969 47 45 47 L 33 47 C 32.246094 47 31.558594 46.734375 31.03125 46.28125 C 30.777344 45.976563 30.363281 45.851563 29.984375 45.964844 C 29.601563 46.074219 29.324219 46.402344 29.273438 46.796875 C 29.222656 47.191406 29.410156 47.578125 29.75 47.78125 C 30.625 48.535156 31.757813 49 33 49 L 45 49 C 47.75 49 50 46.75 50 44 L 50 21.8125 C 50 19.558594 48.941406 15.703125 47.65625 12.15625 C 47.015625 10.382813 46.328125 8.703125 45.625 7.4375 C 45.53125 7.269531 45.4375 7.125 45.34375 6.96875 C 46.277344 6.804688 47 5.976563 47 5 L 47 2 C 47 0.90625 46.09375 0 45 0 Z M 33 2 L 45 2 L 45 5 L 33 5 Z M 19.21875 14.96875 C 18.683594 14.957031 18.21875 15.03125 18.21875 15.03125 C 18.21875 15.03125 16.808594 17.328125 16.65625 20 C 14.101563 16.109375 10.886719 19.464844 9.6875 16.375 C 9.6875 21.304688 13.59375 20.378906 15.03125 21 C 10.644531 21 12.191406 24.773438 8.6875 24.875 C 11.804688 26.253906 14.597656 25.972656 16.65625 21.96875 C 15.703125 24.753906 15.011719 27.003906 18.90625 29.34375 C 19.933594 27.507813 19.4375 24.171875 18.40625 21.5 C 20.273438 24.589844 22.855469 26.710938 26.25 24.5625 C 23.527344 23.851563 24.746094 21.855469 19.9375 21.09375 C 23.027344 21.515625 25.136719 21.953125 26 18.6875 C 23.511719 19.632813 22.519531 15.890625 18.4375 20.125 C 18.421875 20.132813 18.460938 17.445313 20.71875 15.4375 C 20.375 15.101563 19.753906 14.980469 19.21875 14.96875 Z M 8.375 20.5625 C 8.289063 20.582031 8.203125 20.613281 8.125 20.65625 C 2.3125 22.824219 0 28.105469 0 33.84375 C 0 42.367188 7.613281 50 17 50 C 21.136719 50 25.363281 48.597656 28.59375 45.65625 C 31.824219 42.714844 34 38.222656 34 32.25 C 34 29.941406 33.605469 27.601563 32.5625 25.59375 C 31.519531 23.585938 29.785156 21.917969 27.28125 21.0625 C 26.753906 20.882813 26.179688 21.160156 26 21.6875 C 25.820313 22.214844 26.097656 22.789063 26.625 22.96875 C 28.660156 23.664063 29.9375 24.90625 30.78125 26.53125 C 31.625 28.15625 32 30.167969 32 32.25 C 32 37.746094 30.0625 41.621094 27.25 44.1875 C 24.4375 46.753906 20.6875 48 17 48 C 8.707031 48 2 41.164063 2 33.84375 C 2 28.609375 3.8125 24.363281 8.8125 22.5 C 9.289063 22.332031 9.566406 21.832031 9.453125 21.335938 C 9.34375 20.84375 8.878906 20.511719 8.375 20.5625 Z"/></svg>
